!!!OTL: Der keusche Dienstknecht Es hat ein Herrchen ein wunderschoenes Weibchen,
!!!ARE: Europa, Mitteleuropa, Deutschland / France, Lothringen,
!!    Kreis Saargemuend, Roth
!!!YOR: 2, S. 11
!!    1913 aufgezeichnet
!!!SCT: Q0033
!!!YEM: Copyright 1995, estate of Helmut Schaffrath.
**kern
*ICvox
*Ivox
*M3/4
*k[b-]
*F:
{8f
8f
8f
=1
4.cc
8dd
4dd
=2
4cc
4b-
8cc
8cc
=3
4a
4f}
{4f
=4
4f
4f
4cc
=5
4.b-
8a
4g
=6
4f
4g
4a
=7
4g
4c
4r}
=8
{4c
4d
4e
=9
2g
4cc
=10
4a
4g
4a
=11
4f
8r}
==
!!!AGN: Ballade, Verfuehrung, Tod, Ehe, Moral
!!!ONB: ESAC (Essen Associative Code) Database: BALLADE
!!!AMT: simple triple
!!!AIN: vox
!!!EED: Helmut Schaffrath
!!!EEV: 1.0
*-
